packages/foundations/assets/icons/functional/images/maps/location_pin_32.svg

<svg width="32" height="32" viewBox="0 0 32 32" fill="none" xmlns="http://www.w3.org/2000/svg">
<g clip-path="url(#clip0_186_55)">
<path fill-rule="evenodd" clip-rule="evenodd" d="M8 28.9912C8 29.5672 8.4375 30 9 30H23.125C23.626 30 24 29.5036 24 28.9932C24 28.4411 23.5625 28 23 28H8.875C8.3125 28 8 28.5044 8 28.9912ZM16.0005 2C20.5565 2 24 5.6412 24 9.9603C24 11.4375 23.5971 12.9965 22.7257 14.4858L16.8654 24.5023C16.6622 24.8495 16.3438 25 15.9957 25C15.5625 25 15.282 24.767 15.125 24.5L9.4442 14.8398C8.4798 13.1998 8 11.5625 8 9.955C8 5.5551 11.5313 2 16.0005 2ZM16.0336 4C12.625 4 10 6.6292 10 9.9585C10 11.0937 10.3052 12.2783 11.0275 13.5152L16 22.0312L20.8471 13.8116C21.5291 12.655 21.875 11.5625 22 10.2812C22 6.5 19.3574 4 16.0336 4ZM14 10C14 11.0937 14.9063 12 16.0002 12C17.0938 12 18 11.0937 18 10C18 8.9062 17.0938 8 15.9999 8C14.9063 8 14 8.9062 14 10Z" fill="#1A1C1F"/>
</g>
<defs>
<clipPath id="clip0_186_55">
<rect width="32" height="32" fill="white"/>
</clipPath>
</defs>
</svg>

<svg xmlns="http://www.w3.org/2000/svg" width="32" height="32" fill="none"><g clip-path="url(#a)"><path fill="#1A1C1F" fill-rule="evenodd" d="M8 28.991A.986.986 0 0 0 9 30h14.125c.501 0 .875-.496.875-1.007A.99.99 0 0 0 23 28H8.875c-.562 0-.875.504-.875.991M16 2c4.557 0 8 3.641 8 7.96 0 1.477-.403 3.036-1.274 4.526l-5.86 10.016a.97.97 0 0 1-.87.498.98.98 0 0 1-.871-.5l-5.68-9.66C8.48 13.2 8 11.563 8 9.955 8 5.555 11.531 2 16 2m.034 2C12.625 4 10 6.63 10 9.959c0 1.135.305 2.32 1.027 3.556L16 22.031l4.847-8.22A8.2 8.2 0 0 0 22 10.282C22 6.5 19.357 4 16.034 4M14 10c0 1.094.906 2 2 2s2-.906 2-2-.906-2-2-2-2 .906-2 2" clip-rule="evenodd"/></g><defs><clipPath id="a"><path fill="#fff" d="M0 0h32v32H0z"/></clipPath></defs></svg>
